assets/assets/svgs/facebook_icon.svg

<svg width="24" height="24" viewBox="0 0 24 24" fill="none" xmlns="http://www.w3.org/2000/svg">
<path d="M19.8 2.75H4.2C3.12304 2.75 2.25 3.62304 2.25 4.7V20.3C2.25 21.377 3.12304 22.25 4.2 22.25H19.8C20.877 22.25 21.75 21.377 21.75 20.3V4.7C21.75 3.62304 20.877 2.75 19.8 2.75Z" fill="#2D9CDB"/>
<path d="M10 15.5445H12V22.5835H14V15.5445H16C16.2652 15.5445 16.5196 15.4386 16.7071 15.25C16.8946 15.0614 17 14.8057 17 14.539C17 14.2723 16.8946 14.0165 16.7071 13.8279C16.5196 13.6393 16.2652 13.5334 16 13.5334H14V10.5167C14 10.25 14.1054 9.99424 14.2929 9.80566C14.4804 9.61708 14.7348 9.51113 15 9.51113H17C17.2652 9.51113 17.5196 9.40519 17.7071 9.21661C17.8946 9.02803 18 8.77226 18 8.50557C18 8.23887 17.8946 7.9831 17.7071 7.79452C17.5196 7.60594 17.2652 7.5 17 7.5H15C14.2044 7.5 13.4413 7.81783 12.8787 8.38357C12.3161 8.94931 12 9.71662 12 10.5167V13.5334H10C9.73478 13.5334 9.48043 13.6393 9.29289 13.8279C9.10536 14.0165 9 14.2723 9 14.539C9 14.8057 9.10536 15.0614 9.29289 15.25C9.48043 15.4386 9.73478 15.5445 10 15.5445Z" fill="#FFFFFF"/>
</svg>

<svg xmlns="http://www.w3.org/2000/svg" width="24" height="24" fill="none" xmlns:v="https://vecta.io/nano"><path d="M19.8 2.75H4.2A1.95 1.95 0 0 0 2.25 4.7v15.6a1.95 1.95 0 0 0 1.95 1.95h15.6a1.95 1.95 0 0 0 1.95-1.95V4.7a1.95 1.95 0 0 0-1.95-1.95z" fill="#2d9cdb"/><path d="M10 15.545h2v7.039h2v-7.039h2c.265 0 .52-.106.707-.294a1.01 1.01 0 0 0 0-1.422c-.187-.189-.442-.294-.707-.294h-2v-3.017a1.01 1.01 0 0 1 .293-.711c.188-.189.442-.295.707-.295h2c.265 0 .52-.106.707-.295a1.01 1.01 0 0 0 0-1.422C17.52 7.606 17.265 7.5 17 7.5h-2a2.99 2.99 0 0 0-2.121.884c-.563.566-.879 1.333-.879 2.133v3.017h-2c-.265 0-.52.106-.707.294a1.01 1.01 0 0 0 0 1.422c.188.189.442.294.707.294z" fill="#fff"/></svg>
